X: 762
T: Shiquan renxen
L: 1/8
M: 4/4
K: G
A A d e/ d/ B A E D [I:setbarnb 1]| 
A A/ A/ G F/ E/D4 | 
A A d F A G F E | 
A G F ED4 | 
A GA2A d B d/ d/ | 
B A A dG2F E | 
A B d F A G F E | 
A G F ED4 | 
A B A dG4 |]

@@@ Tune index: 9636
